X: 3033
T: Bay Boys, The
R: polka
M: 2/4
K: Dmajor
|:Ad dA|dc BA|Be BA|dc BA|
Ad dA|dc BA|Be Bc|1 d2 d>B:|2 d2 d>e||
|:fa fd|ef AF/A/|Bc BA|fd/f/ ec/e/|
fa fd|ef AF/A/|Be Bc|1 d2 d>e:|2 d2 d>B||

